src/Icon/svgs/reply.svg

<svg width="24" height="24" viewBox="0 0 24 24" fill="none" xmlns="http://www.w3.org/2000/svg">
<path fill-rule="evenodd" clip-rule="evenodd" d="M2.36808 21.6319L2.96219 16.2849C2.33208 14.9581 2 13.5019 2 12C2 6.47715 6.47715 2 12 2C17.5228 2 22 6.47715 22 12C22 17.5228 17.5228 22 12 22C10.4981 22 9.04191 21.6679 7.71511 21.0378L2.36808 21.6319ZM4.63192 19.3681L8.0842 18.9845L8.35207 19.122C9.47086 19.6964 10.7126 20 12 20C16.4183 20 20 16.4183 20 12C20 7.58172 16.4183 4 12 4C7.58172 4 4 7.58172 4 12C4 13.2874 4.30364 14.5291 4.87799 15.6479L5.01551 15.9158L4.63192 19.3681ZM8 13C7.44772 13 7 12.5523 7 12C7 11.4477 7.44772 11 8 11C8.55228 11 9 11.4477 9 12C9 12.5523 8.55228 13 8 13ZM12 13C11.4477 13 11 12.5523 11 12C11 11.4477 11.4477 11 12 11C12.5523 11 13 11.4477 13 12C13 12.5523 12.5523 13 12 13ZM16 13C15.4477 13 15 12.5523 15 12C15 11.4477 15.4477 11 16 11C16.5523 11 17 11.4477 17 12C17 12.5523 16.5523 13 16 13Z" fill="#1B1C1D"/>
</svg>

<svg xmlns="http://www.w3.org/2000/svg" width="24" height="24" fill="none"><path fill-rule="evenodd" d="M2.368 21.632l.594-5.347C2.332 14.958 2 13.502 2 12 2 6.477 6.477 2 12 2s10 4.477 10 10-4.477 10-10 10c-1.502 0-2.958-.332-4.285-.962l-5.347.594zm2.264-2.264l3.452-.384.268.137A7.96 7.96 0 0 0 12 20a8 8 0 1 0 0-16 8 8 0 0 0-8 8 7.96 7.96 0 0 0 .878 3.648l.138.268-.384 3.452zM8 13a1 1 0 1 1 0-2 1 1 0 1 1 0 2zm4 0a1 1 0 1 1 0-2 1 1 0 1 1 0 2zm4 0a1 1 0 1 1 0-2 1 1 0 1 1 0 2z" fill="#1B1C1D"/></svg>
